public/illustration/ig.svg

<svg width="32" height="32" viewBox="0 0 32 32" fill="none" xmlns="http://www.w3.org/2000/svg">
<rect width="32" height="32" fill="#F7F7F7"/>
<g clip-path="url(#clip0_744_5238)">
<path fill-rule="evenodd" clip-rule="evenodd" d="M16.0001 3.09336C20.2063 3.09336 20.7 3.11211 22.3625 3.1871C23.9 3.25586 24.7313 3.51211 25.2876 3.73086C26.0251 4.01836 26.55 4.35586 27.1 4.90585C27.6494 5.45586 27.9941 5.98086 28.2748 6.71836C28.4872 7.27461 28.7505 8.10585 28.8188 9.64336C28.8945 11.3059 28.9119 11.7996 28.9119 16.0059C28.9119 20.2121 28.8945 20.7058 28.8188 22.3683C28.7505 23.9058 28.4945 24.7371 28.2748 25.2934C27.9883 26.0309 27.6494 26.5558 27.1 27.1058C26.55 27.6559 26.0251 27.9996 25.2876 28.2809C24.7313 28.4934 23.9 28.7558 22.3625 28.8246C20.7 28.8995 20.2063 28.9183 16.0001 28.9183C11.7938 28.9183 11.3 28.8995 9.63758 28.8246C8.09998 28.7558 7.26885 28.4995 6.71249 28.2809C5.97504 27.9934 5.45009 27.6559 4.89998 27.1058C4.35002 26.5558 4.00631 26.0309 3.725 25.2934C3.51249 24.7371 3.2501 23.9058 3.1813 22.3683C3.10624 20.7058 3.08762 20.2121 3.08762 16.0059C3.08762 11.7996 3.10624 11.3059 3.1813 9.64336C3.2501 8.10585 3.50623 7.27461 3.725 6.71836C4.01256 5.98086 4.35002 5.45586 4.89998 4.90585C5.45009 4.35586 5.97504 4.01211 6.71249 3.73086C7.26885 3.51836 8.09998 3.25586 9.63758 3.1871C11.3 3.10585 11.7938 3.09336 16.0001 3.09336ZM16.0001 0.255859C11.725 0.255859 11.1875 0.274608 9.50624 0.349605C7.83133 0.424616 6.68762 0.693358 5.68762 1.08086C4.65009 1.48086 3.77503 2.02462 2.89998 2.89961C2.02507 3.77461 1.48762 4.65586 1.08137 5.6871C0.693874 6.6871 0.425075 7.83086 0.35002 9.51211C0.275111 11.1871 0.256348 11.7246 0.256348 15.9996C0.256348 20.2747 0.275111 20.8121 0.35002 22.4934C0.425075 24.1683 0.693874 25.312 1.08137 26.3183C1.48137 27.3558 2.02507 28.2309 2.89998 29.1058C3.77503 29.9808 4.65635 30.5183 5.68762 30.9246C6.68762 31.312 7.83133 31.5808 9.5125 31.6559C11.1938 31.7308 11.725 31.7496 16.0063 31.7496C20.2876 31.7496 20.8188 31.7308 22.5 31.6559C24.175 31.5808 25.3188 31.312 26.325 30.9246C27.3625 30.5246 28.237 29.9808 29.1126 29.1058C29.9883 28.2309 30.525 27.3496 30.9308 26.3183C31.3192 25.3183 31.5883 24.1746 31.6625 22.4934C31.7381 20.8121 31.757 20.2809 31.757 15.9996C31.757 11.7184 31.7381 11.1871 31.6625 9.50585C31.5883 7.83085 31.3192 6.6871 30.9308 5.68086C30.5308 4.64336 29.9883 3.76835 29.1126 2.89336C28.237 2.01836 27.3563 1.48086 26.325 1.07461C25.325 0.687103 24.1813 0.418361 22.5 0.343365C20.8126 0.274608 20.2751 0.255859 16.0001 0.255859ZM16.0001 7.91211C11.5375 7.91211 7.9125 11.5309 7.9125 15.9996C7.9125 20.4684 11.5375 24.0872 16.0001 24.0872C20.4626 24.0872 24.0876 20.4622 24.0876 15.9996C24.0876 11.5371 20.4626 7.91211 16.0001 7.91211ZM16.0001 21.2496C13.1 21.2496 10.75 18.8995 10.75 15.9996C10.75 13.0995 13.1 10.7496 16.0001 10.7496C18.9 10.7496 21.2501 13.0995 21.2501 15.9996C21.2501 18.8995 18.9 21.2496 16.0001 21.2496ZM26.2934 7.59337C26.2934 8.63582 25.4483 9.48088 24.4059 9.48088C23.3634 9.48088 22.5183 8.63582 22.5183 7.59337C22.5183 6.55094 23.3634 5.70588 24.4059 5.70588C25.4483 5.70588 26.2934 6.55094 26.2934 7.59337Z" fill="#FB0021"/>
</g>
<defs>
<clipPath id="clip0_744_5238">
<rect width="32" height="32" fill="white"/>
</clipPath>
</defs>
</svg>

<svg xmlns="http://www.w3.org/2000/svg" width="32" height="32" fill="none" viewBox="0 0 32 32"><g clip-path="url(#a)"><path fill="#fb0021" fill-rule="evenodd" d="M16 3.093c4.206 0 4.7.02 6.363.094 1.537.069 2.368.325 2.925.544A4.9 4.9 0 0 1 27.1 4.906a4.8 4.8 0 0 1 1.175 1.812c.212.557.476 1.388.544 2.925.076 1.663.093 2.157.093 6.363s-.017 4.7-.093 6.362c-.069 1.538-.325 2.37-.544 2.925a4.9 4.9 0 0 1-1.175 1.813 4.8 4.8 0 0 1-1.812 1.175c-.557.212-1.388.475-2.925.544-1.663.075-2.157.093-6.363.093s-4.7-.018-6.362-.093c-1.538-.07-2.37-.325-2.926-.544-.737-.288-1.262-.625-1.812-1.175a4.8 4.8 0 0 1-1.175-1.813c-.213-.556-.475-1.387-.544-2.925-.075-1.662-.093-2.156-.093-6.362s.018-4.7.093-6.363c.07-1.537.325-2.368.544-2.925.288-.737.625-1.262 1.175-1.812A4.8 4.8 0 0 1 6.712 3.73c.557-.213 1.388-.475 2.926-.544 1.662-.081 2.156-.094 6.362-.094m0-2.837c-4.275 0-4.812.019-6.494.094-1.675.075-2.818.343-3.818.73A7.7 7.7 0 0 0 2.9 2.9a7.8 7.8 0 0 0-1.819 2.787c-.387 1-.656 2.144-.731 3.825C.275 11.187.256 11.725.256 16s.02 4.812.094 6.493c.075 1.675.344 2.819.731 3.825A7.7 7.7 0 0 0 2.9 29.106a7.8 7.8 0 0 0 2.788 1.819c1 .387 2.143.656 3.824.73 1.682.076 2.213.095 6.494.095 4.282 0 4.813-.02 6.494-.094 1.675-.075 2.819-.344 3.825-.731a7.7 7.7 0 0 0 2.788-1.82 7.8 7.8 0 0 0 1.818-2.787c.388-1 .657-2.143.732-3.825.075-1.68.094-2.212.094-6.493s-.019-4.813-.095-6.494c-.074-1.675-.343-2.819-.731-3.825a7.7 7.7 0 0 0-1.818-2.788 7.8 7.8 0 0 0-2.788-1.818c-1-.388-2.144-.657-3.825-.732C20.813.275 20.275.256 16 .256m0 7.656A8.09 8.09 0 0 0 7.913 16 8.09 8.09 0 0 0 16 24.087c4.463 0 8.088-3.625 8.088-8.087A8.093 8.093 0 0 0 16 7.912m0 13.338a5.25 5.25 0 1 1 0-10.5 5.25 5.25 0 1 1 0 10.5M26.293 7.593a1.888 1.888 0 1 1-3.775 0 1.888 1.888 0 0 1 3.775 0" clip-rule="evenodd"/></g><defs><clipPath id="a"><path fill="#fff" d="M0 0h32v32H0z"/></clipPath></defs></svg>
